Yaru++/status/symbolic/microphone-disabled-symbolic.svg

<svg height="16" width="16" xmlns="http://www.w3.org/2000/svg"><g fill="#808080"><path d="m7.5.986a2.487 2.487 0 0 0 -2.354 1.684l4.854 4.853v-4.037c0-1.385-1.115-2.5-2.5-2.5zm3.986 4.014a.5.5 0 0 0 -.486.5c0 .069.006.128.031.188v2.78a3.521 3.521 0 0 1 -.004.083l.868.867a4.516 4.516 0 0 0 .105-.95v-2.968a.5.5 0 0 0 -.514-.5zm-8.484.479a.5.5 0 0 0 -.002.021v2.969a4.516 4.516 0 0 0 3 4.25v1.281h-2c-.565 0-1 .49-1 1v1h9v-1c0-.584-.476-1-1-1h-2v-1.281a4.516 4.516 0 0 0 .84-.403l-.711-.71a3.521 3.521 0 0 1 -1.627.394c-1.954 0-3.502-1.567-3.502-3.531v-1.992zm1.998 1.998v1.023a2.495 2.495 0 0 0 2.5 2.5c.305 0 .593-.061.863-.16z" opacity=".5"/><path d="m1.531.469-1.061 1.061 14 14 1.062-1.062z"/></g></svg>

<?xml version="1.0" encoding="UTF-8" standalone="no"?>
<svg
   xmlns:dc="http://purl.org/dc/elements/1.1/"
   xmlns:cc="http://creativecommons.org/ns#"
   xmlns:rdf="http://www.w3.org/1999/02/22-rdf-syntax-ns#"
   xmlns:svg="http://www.w3.org/2000/svg"
   xmlns="http://www.w3.org/2000/svg"
   xmlns:sodipodi="http://sodipodi.sourceforge.net/DTD/sodipodi-0.dtd"
   xmlns:inkscape="http://www.inkscape.org/namespaces/inkscape"
   width="16"
   height="16"
   version="1.1"
   id="svg8"
   sodipodi:docname="microphone-disabled-symbolic.svg"
   inkscape:version="0.92.4 (5da689c313, 2019-01-14)">
  <metadata
     id="metadata14">
    <rdf:RDF>
      <cc:Work
         rdf:about="">
        <dc:format>image/svg+xml</dc:format>
        <dc:type
           rdf:resource="http://purl.org/dc/dcmitype/StillImage" />
      </cc:Work>
    </rdf:RDF>
  </metadata>
  <defs
     id="defs12" />
  <sodipodi:namedview
     pagecolor="#ffffff"
     bordercolor="#666666"
     borderopacity="1"
     objecttolerance="10"
     gridtolerance="10"
     guidetolerance="10"
     inkscape:pageopacity="0"
     inkscape:pageshadow="2"
     inkscape:window-width="1920"
     inkscape:window-height="1016"
     id="namedview10"
     showgrid="false"
     inkscape:zoom="14.75"
     inkscape:cx="8"
     inkscape:cy="8"
     inkscape:window-x="0"
     inkscape:window-y="27"
     inkscape:window-maximized="1"
     inkscape:current-layer="g6" />
  <g
     fill="#2e3436"
     id="g6">
    <path
       d="M7.5.986A2.487 2.487 0 0 0 5.146 2.67L10 7.523V3.486c0-1.385-1.115-2.5-2.5-2.5zM11.486 5a.5.5 0 0 0-.486.5c0 .069.006.128.031.188v2.78a3.521 3.521 0 0 1-.004.083l.868.867a4.516 4.516 0 0 0 .105-.95V5.5a.5.5 0 0 0-.514-.5zm-8.484.479A.5.5 0 0 0 3 5.5v2.969a4.516 4.516 0 0 0 3 4.25V14H4c-.565 0-1 .49-1 1v1h9v-1c0-.584-.476-1-1-1H9v-1.281a4.516 4.516 0 0 0 .84-.403l-.711-.71A3.521 3.521 0 0 1 7.502 12C5.548 12 4 10.433 4 8.469V6.477zM5 7.477V8.5A2.495 2.495 0 0 0 7.5 11c.305 0 .593-.061.863-.16z"
       opacity=".35"
       id="path2"
       style="fill:#808080;fill-opacity:1;opacity:0.5" />
    <path
       d="M1.531.469L.47 1.53l14 14 1.062-1.062z"
       id="path4"
       style="fill:#808080;fill-opacity:1" />
  </g>
</svg>
